packages/foundations/assets/icons/functional/images/human/wc_sign_32.svg

<svg width="32" height="32" viewBox="0 0 32 32" fill="none" xmlns="http://www.w3.org/2000/svg">
<g clip-path="url(#clip0_185_1292)">
<path fill-rule="evenodd" clip-rule="evenodd" d="M25.9688 8.10938C27.0938 8.10938 28.2188 8.35938 29.2812 8.82808C29.7188 9.01558 29.9062 9.35938 29.9062 9.73438C29.9062 10.2344 29.5 10.7656 28.9375 10.7656C28.8125 10.7656 28.6562 10.7344 28.5312 10.6718C27.6875 10.2968 26.8438 10.1094 25.8438 10.1094C24.6875 10.1094 21.6875 10.2968 21.6875 16.0781C21.6875 21.2968 24.1562 21.8906 26.0312 21.8906C26.875 21.8594 27.75 21.7031 28.5625 21.3906C28.7188 21.3281 28.875 21.2968 29.0312 21.2968C29.5938 21.2968 30 21.8281 30 22.3594C30 22.7031 29.8125 23.0156 29.4062 23.2031C28.3125 23.6406 27.1875 23.8594 26.0312 23.8906C23.125 23.8906 19.6875 22.5468 19.6875 16.0781C19.6875 9.14058 23.625 8.10938 25.9688 8.10938ZM2.0312 9.35938C2 9.26558 2 9.17178 2 9.07808C2 8.48438 2.5312 8.10938 3.0312 8.10938C3.4375 8.10938 3.8438 8.32807 3.9688 8.85938L6.5312 18.9218L9.4375 8.82808C9.5625 8.35938 9.9688 8.10938 10.375 8.10938C10.8125 8.10938 11.2188 8.35938 11.3438 8.82808L14.1562 18.9218L16.8125 8.85938C16.9375 8.32807 17.3438 8.10938 17.75 8.10938C18.25 8.10938 18.7812 8.48438 18.7812 9.07808C18.7812 9.14058 18.75 9.26558 18.7188 9.35938L15.1562 22.9844C15.0312 23.4844 14.625 23.7344 14.1875 23.7344C13.7812 23.7344 13.375 23.4844 13.25 23.0156L10.375 12.7656L7.4375 23.0156C7.3125 23.5156 6.9062 23.7344 6.5 23.7344C6.0625 23.7344 5.6562 23.4844 5.5312 22.9844L2.0312 9.35938Z" fill="#1A1C1F"/>
</g>
<defs>
<clipPath id="clip0_185_1292">
<rect width="32" height="32" fill="white"/>
</clipPath>
</defs>
</svg>

<svg xmlns="http://www.w3.org/2000/svg" width="32" height="32" fill="none"><g clip-path="url(#a)"><path fill="#1A1C1F" fill-rule="evenodd" d="M25.969 8.11c1.125 0 2.25.25 3.312.718.438.188.625.531.625.906 0 .5-.406 1.032-.968 1.032a1 1 0 0 1-.407-.094 6.4 6.4 0 0 0-2.687-.563c-1.157 0-4.157.188-4.157 5.97 0 5.218 2.47 5.812 4.344 5.812a7.9 7.9 0 0 0 2.532-.5q.234-.094.468-.094c.563 0 .969.531.969 1.062 0 .344-.187.657-.594.844a9.7 9.7 0 0 1-3.375.688c-2.906 0-6.343-1.344-6.343-7.813 0-6.937 3.937-7.969 6.28-7.969M2.03 9.36C2 9.265 2 9.171 2 9.077c0-.594.531-.969 1.031-.969.406 0 .813.22.938.75L6.53 18.922 9.438 8.828a.96.96 0 0 1 .937-.719c.438 0 .844.25.969.72l2.812 10.093 2.656-10.063c.125-.53.532-.75.938-.75.5 0 1.031.375 1.031.97 0 .062-.031.187-.062.28l-3.563 13.625c-.125.5-.531.75-.969.75a.96.96 0 0 1-.937-.718l-2.875-10.25-2.937 10.25c-.125.5-.532.718-.938.718-.437 0-.844-.25-.969-.75z" clip-rule="evenodd"/></g><defs><clipPath id="a"><path fill="#fff" d="M0 0h32v32H0z"/></clipPath></defs></svg>
